libs/ui/packages/crypto-icons/src/svg/PROTON.svg

<svg width="24" height="24" viewBox="0 0 24 24" fill="none" xmlns="http://www.w3.org/2000/svg">
<path fill-rule="evenodd" clip-rule="evenodd" d="M17.0183 9.39453L17.4447 9.49622C18.504 9.74899 19.3949 10.0933 20.024 10.5017C20.626 10.8925 21.1202 11.4338 21.0657 12.1031C21.0031 12.8719 20.4751 13.3817 19.8487 13.7373C19.2243 14.0918 18.4097 14.3477 17.5911 14.5797C17.3582 14.6458 17.1159 14.5106 17.0499 14.2777C16.9838 14.0448 17.1191 13.8024 17.352 13.7363C18.1764 13.5026 18.895 13.2707 19.4159 12.9749C19.9346 12.6805 20.1638 12.378 20.192 12.0319C20.2048 11.8735 20.0883 11.5886 19.5467 11.237C19.0321 10.903 18.2463 10.5887 17.2412 10.349L17.1229 10.3162C17.1229 10.3162 17.1404 10.0312 17.1297 9.84979C17.1161 9.61888 17.0183 9.39453 17.0183 9.39453ZM7.04019 9.84681C7.11181 10.078 6.98242 10.3235 6.75121 10.3951C5.80093 10.6895 5.10701 10.9835 4.65809 11.2905C4.2188 11.591 4.08507 11.8516 4.08082 12.0828C4.09129 12.2232 4.17226 12.4023 4.39805 12.614C4.62903 12.8306 4.97931 13.0493 5.44304 13.2546C6.36845 13.6641 7.40537 13.9417 8.86037 14.1093L9.45377 15.073L9.01839 15.0229C7.5079 14.8489 6.11972 14.5127 5.08825 14.0562C4.57357 13.8284 4.12705 13.5616 3.79841 13.2534C3.47029 12.9457 3.22717 12.5644 3.20465 12.1162C3.20429 12.1089 3.2041 12.1015 3.2041 12.0942C3.2041 11.448 3.60113 10.9513 4.16324 10.5669C4.72299 10.1841 5.51864 9.85922 6.49181 9.5578C6.72305 9.48614 6.96855 9.61552 7.04019 9.84681Z" fill="white"/>
<path d="M9.02545 5.15453C8.53996 4.91628 8.29004 4.95656 8.13889 5.04382C7.8908 5.18708 7.72434 5.47692 7.71138 6.07628C7.69837 6.67781 7.84624 7.48047 8.11014 8.47294L8.13304 8.54912C8.13304 8.54912 7.86443 8.66264 7.71659 8.7734C7.56419 8.88749 7.37557 9.12178 7.37557 9.12178L7.26294 8.69823C6.9957 7.69313 6.81911 6.78977 6.83497 6.05732C6.85086 5.32275 7.0666 4.65068 7.7006 4.28463C8.20784 3.9918 8.79265 4.06378 9.41168 4.36757C10.0254 4.66877 10.7515 5.2326 11.6296 6.07227C11.8046 6.23957 11.8108 6.51701 11.6435 6.69197C11.4762 6.86693 11.1987 6.87312 11.0238 6.70582C10.1644 5.88406 9.5163 5.39542 9.02545 5.15453Z" fill="white"/>
<path fill-rule="evenodd" clip-rule="evenodd" d="M10.3601 8.97592C9.70829 9.0196 9.08251 9.08682 8.49182 9.17483C7.94357 9.25658 7.61503 9.82506 7.81848 10.341C8.23065 11.3861 8.76897 12.5025 9.41935 13.629C10.1009 14.8094 10.8344 15.878 11.5673 16.7854C10.8166 17.6427 10.0984 18.2871 9.48036 18.6746C8.76153 19.1253 8.33177 19.1387 8.12189 19.0175C7.87802 18.8767 7.71672 18.5942 7.71077 17.9882C7.70477 17.3798 7.86029 16.5652 8.12275 15.5435C8.18297 15.309 8.0417 15.0701 7.80725 15.0099C7.57279 14.9496 7.33389 15.0909 7.27368 15.3253C7.01025 16.351 6.82697 17.2632 6.83419 17.9968C6.84144 18.7331 7.04534 19.4082 7.68357 19.7767C8.35584 20.1648 9.19277 19.8897 9.94605 19.4173C10.7354 18.9223 11.6078 18.1062 12.4754 17.0729C13.2864 16.1068 14.1053 14.9365 14.8601 13.629C14.9745 13.4308 15.0855 13.233 15.1928 13.0358C15.854 14.4796 16.2851 15.8117 16.4597 16.8754C16.5629 17.5038 16.5723 18.0135 16.5027 18.3876C16.4327 18.7641 16.2966 18.941 16.164 19.0175C16.0026 19.1107 15.7352 19.1616 15.2417 18.9339C14.7374 18.7011 14.0586 18.2017 13.1555 17.2944C12.9848 17.1228 12.7073 17.1222 12.5357 17.2929C12.3642 17.4637 12.3635 17.7412 12.5342 17.9128C13.4649 18.8478 14.2304 19.4327 14.8743 19.7298C15.5292 20.032 16.1141 20.0586 16.6023 19.7767C17.0437 19.5219 17.2698 19.0574 17.3645 18.5479C17.4598 18.0359 17.4366 17.4149 17.3247 16.7333C17.1085 15.4162 16.5445 13.7788 15.6991 12.0584C15.9872 11.4722 16.2419 10.8967 16.461 10.341C16.6643 9.82538 16.3362 9.25658 15.7877 9.17483C14.6765 9.00923 13.4405 8.91719 12.1397 8.91719C11.9109 8.91719 11.6842 8.92005 11.4598 8.92566C12.3795 7.63178 13.3182 6.59368 14.1525 5.91189C14.6455 5.509 15.0826 5.24666 15.4416 5.12032C15.803 4.99312 16.0247 5.02262 16.1576 5.09932C16.356 5.21387 16.5342 5.45697 16.5646 6.03155C16.5646 6.63642 16.4896 7.38695 16.1454 8.55477C16.1454 8.55477 16.3973 8.66399 16.5381 8.76664C16.6972 8.88256 16.8957 9.12189 16.8957 9.12189L16.9625 8.87241C17.3162 7.67188 17.4787 6.71642 17.44 5.98516C17.4008 5.2457 17.1474 4.65858 16.5959 4.34015C16.1548 4.08549 15.6396 4.12137 15.1506 4.2934C14.6593 4.4663 14.1326 4.79603 13.5978 5.23307C12.5643 6.07766 11.4274 7.38347 10.3601 8.97592ZM12.578 15.5248V9.79746C13.6688 9.81551 14.702 9.9003 15.6378 10.0388C15.406 10.6248 15.1319 11.2364 14.818 11.8618C14.5981 12.2998 14.3588 12.7441 14.1009 13.1907C13.612 14.0376 13.0971 14.822 12.578 15.5248ZM11.7014 9.79746V15.5248C11.1823 14.822 10.6674 14.0376 10.1785 13.1907C9.55231 12.1061 9.0359 11.0355 8.64165 10.0388C9.26493 9.94655 9.93175 9.8781 10.6303 9.83735C10.98 9.81688 11.3376 9.80344 11.7014 9.79746Z" fill="white"/>
</svg>

<svg xmlns="http://www.w3.org/2000/svg" width="24" height="24" viewBox="0 0 24 24" fill="none"><path fill="#fff" fill-rule="evenodd" d="m17.018 9.395.427.101c1.059.253 1.95.597 2.579 1.006.602.39 1.096.932 1.042 1.601-.063.769-.59 1.279-1.217 1.634-.625.355-1.44.61-2.258.843a.438.438 0 1 1-.239-.844c.824-.233 1.543-.465 2.064-.761.519-.294.748-.597.776-.943.013-.159-.104-.443-.645-.795-.515-.334-1.3-.648-2.306-.888l-.118-.033s.017-.285.007-.466c-.014-.231-.112-.455-.112-.455m-9.978.452a.44.44 0 0 1-.289.548c-.95.295-1.644.588-2.093.896-.44.3-.573.56-.577.792.01.14.091.32.317.531.231.217.581.435 1.045.64.925.41 1.962.688 3.417.855l.594.964-.436-.05c-1.51-.174-2.898-.51-3.93-.967-.514-.228-.961-.494-1.29-.803-.328-.307-.57-.689-.593-1.137v-.022c0-.646.396-1.143.958-1.527.56-.383 1.356-.708 2.329-1.01a.44.44 0 0 1 .548.29" clip-rule="evenodd"/><path fill="#fff" d="M9.025 5.155c-.485-.239-.735-.198-.886-.111-.248.143-.415.433-.428 1.032-.013.602.135 1.404.4 2.397l.022.076s-.269.114-.416.224a2.5 2.5 0 0 0-.341.349l-.113-.424c-.267-1.005-.444-1.908-.428-2.64.016-.735.232-1.407.866-1.773.507-.293 1.092-.221 1.71.083.614.3 1.34.865 2.219 1.704a.438.438 0 1 1-.606.634c-.86-.822-1.508-1.31-1.999-1.551"/><path fill="#fff" fill-rule="evenodd" d="M10.36 8.976q-.98.066-1.868.199a.86.86 0 0 0-.674 1.166 25 25 0 0 0 1.601 3.288 25 25 0 0 0 2.148 3.156c-.75.858-1.469 1.502-2.087 1.89-.718.45-1.148.464-1.358.342-.244-.14-.405-.423-.411-1.029-.006-.608.15-1.423.412-2.444a.438.438 0 0 0-.85-.219c-.263 1.026-.446 1.938-.439 2.672.007.736.211 1.411.85 1.78.672.388 1.509.113 2.262-.36.79-.495 1.662-1.31 2.53-2.344a24.3 24.3 0 0 0 2.384-3.444q.172-.297.333-.593c.661 1.444 1.092 2.776 1.267 3.84.103.628.112 1.137.043 1.512-.07.376-.206.553-.339.63-.161.093-.429.144-.922-.084-.505-.233-1.183-.732-2.087-1.64a.438.438 0 1 0-.62.619c.93.935 1.695 1.52 2.34 1.817.654.302 1.24.329 1.727.047.442-.255.668-.72.762-1.23.096-.511.073-1.132-.04-1.814-.216-1.317-.78-2.954-1.625-4.675q.433-.881.762-1.717a.86.86 0 0 0-.673-1.166 25 25 0 0 0-3.648-.258q-.344 0-.68.009c.92-1.294 1.858-2.332 2.692-3.014.494-.403.93-.665 1.29-.792.361-.127.583-.097.716-.02.198.114.376.357.407.932 0 .604-.075 1.355-.42 2.523 0 0 .252.109.393.212.16.116.358.355.358.355l.066-.25c.354-1.2.517-2.156.478-2.887-.04-.74-.293-1.326-.844-1.645-.441-.255-.956-.219-1.445-.047-.492.173-1.018.503-1.553.94-1.034.845-2.17 2.15-3.238 3.743m2.218 6.549V9.797a24 24 0 0 1 3.06.242 23 23 0 0 1-.82 1.823 26 26 0 0 1-2.24 3.663m-.877-5.728v5.728a25 25 0 0 1-1.523-2.334 24 24 0 0 1-1.536-3.152c.623-.092 1.29-.16 1.988-.202q.526-.03 1.071-.04" clip-rule="evenodd"/></svg>
